X:1
T:Feinslieb, du hast mich g'fangen
T:Hans Leo Hassler (1564-1612)
T: 
T:543
T:aus "Neue Teutsche Gesang" (1596), Nr. 4
C:Hans Leo Hassler
%%score 1 2 3 4
L:1/8
Q:1/2=68
M:2/2
K:C
V:1 treble nm="S"
V:2 treble nm="A"
V:3 treble-8 nm="T"
V:4 bass nm="B"
V:1
 d2 | e2 d2 c2 B2 | A4 A2 B2 | G2 G2 A2 A2 | B4 z2 d2 | e2 d2 c2 B2 | A4 A2 B2 | G2 G2 A2 A2 | %8
w: Feins-|lieb, du hast mich|g'fan- gen mit|den zwei Äug- lein|schon; nach|dir steht mein Ver-|lan- gen, on|dir kann ich nit|
w: Ins|Her- ze tut mir|drin- gen des|Mai- en lich- ter|Schein und|auch das fröh- lich|Sin- gen der|klei- nen Vö- ge-|
 B4 z2 G2 | c2 B2 c2 d2 | e4 c2 c2 | f2 f2 e2 e2 | d4 z2 B2 | e2 c2 d2 e2 | c4 B2 B2 | %15
w: stohn. Mein|Schatz, ich bitt' dich|e- ben, wollst|mich auch nit ver-|lan. Dich|all- ein liebt mein|Her- ze, sag|
w: lein. Im|Wald der Bäu- me|Rau- schen viel|tie- fer drin- get|ein; Auch|du ihm bringst, Frau|Son- ne, der|
 B2 G2 A2 B2 | G4 ^F2 A2 | A2 B2 c2 d2 | (e3 d c2) B2 | A2 G2 G2 ^F2 | G4 z2 |] %21
w: ich ohn al- len|Scher- ze, dein|Die- ner will ich|sein _ _ bis|an das En- de|mein.|
w: Freu- den viel und|Won- ne; doch|mehr ich Freu- den|han, _ _ seit|du mir's an- ge-|tan.|
V:2
 G2 | G2 F2 A2 G2 | ^F4 F2 G2 | E2 G2 ^F2 F2 | G4 z2 G2 | G2 F2 A2 G2 | ^F4 F2 G2 | E2 G2 ^F2 F2 | %8
w: Feins-|lieb, du hast mich|g'fan- gen mit|den zwei Äug- lein|schon; nach|dir steht mein Ver-|lan- gen, on|dir kann ich nit|
w: Ins|Her- ze tut mir|drin- gen des|Mai- en lich- ter|Schein und|auch das fröh- lich|Sin- gen der|klei- nen Vö- ge-|
 G4 z2 D2 | F2 D2 A2 F2 | G4 A2 G2 | A2 A2 G2 E2 | ^F4 z2 G2 | G2 A2 G2 G2 | (G2 ^F2) G2 G2 | %15
w: stohn. Mein|Schatz, ich bitt' dich|e- ben, wollst|mich auch nit ver-|lan. Dich|all- ein liebt mein|Her- * ze, sag|
w: lein. Im|Wald der Bäu- me|Rau- schen viel|tie- fer drin- get|ein; Auch|du ihm bringst, Frau|Son- * ne, der|
 D2 E2 D2 D2 | (D2 ^C2) D2 F2 | ^F2 G2 A2 =F2 | G6 G2 | E2 D2 E2 D2 | D4 z2 |] %21
w: ich ohn al- len|Scher- * ze, dein|Die- ner will ich|sein bis|an das En- de|mein.|
w: Freu- den viel und|Won- * ne; doch|mehr ich Freu- den|han, seit|du mir's an- ge-|tan.|
V:3
 B2 | c2 A2 A2 d2 | d4 d2 d2 | c2 B2 d2 d2 | d4 z2 B2 | c2 A2 A2 d2 | d4 d2 d2 | c2 B2 d2 d2 | %8
w: Feins-|lieb, du hast mich|g'fan- gen mit|den zwei Äug- lein|schon; nach|dir steht mein Ver-|lan- gen, on|dir kann ich nit|
w: Ins|Her- ze tut mir|drin- gen des|Mai- en lich- ter|Schein und|auch das fröh- lich|Sin- gen der|klei- nen Vö- ge-|
 d4 z2 B2 | A2 G2 A2 A2 | c4 c2 G2 | d2 d2 d2 ^c2 | d4 z2 d2 | c2 e2 d2 c2 | c4 d2 d2 | %15
w: stohn. Mein|Schatz, ich bitt' dich|e- ben, wollst|mich auch nit ver-|lan. Dich|all- ein liebt mein|Her- ze, sag|
w: lein. Im|Wald der Bäu- me|Rau- schen viel|tie- fer drin- get|ein; Auch|du ihm bringst, Frau|Son- ne, der|
 B2 B2 A2 G2 | G4 A2 d2 | d2 d2 A2 A2 | (c3 d e2) d2 | c2 B2 A2 A2 | B4 z2 |] %21
w: ich ohn al- len|Scher- ze, dein|Die- ner will ich|sein _ _ bis|an das En- de|mein.|
w: Freu- den viel und|Won- ne; doch|mehr ich Freu- den|han, _ _ seit|du mir's an- ge-|tan.|
V:4
 G,2 | C,2 D,2 F,2 G,2 | D,4 D,2 B,,2 | C,2 E,2 D,2 D,2 | G,,4 z2 G,2 | C,2 D,2 F,2 G,2 | %6
w: Feins-|lieb, du hast mich|g'fan- gen mit|den zwei Äug- lein|schon; nach|dir steht mein Ver-|
w: Ins|Her- ze tut mir|drin- gen des|Mai- en lich- ter|Schein und|auch das fröh- lich|
 D,4 D,2 B,,2 | C,2 E,2 D,2 D,2 | G,,4 z2 G,2 | F,2 G,2 F,2 D,2 | C,4 F,2 E,2 | D,2 F,2 G,2 A,2 | %12
w: lan- gen, on|dir kann ich nit|stohn. Mein|Schatz, ich bitt' dich|e- ben, wollst|mich auch nit ver-|
w: Sin- gen der|klei- nen Vö- ge-|lein. Im|Wald der Bäu- me|Rau- schen viel|tie- fer drin- get|
 D,4 z2 G,2 | C2 A,2 B,2 C2 | A,4 G,2 G,2 | G,2 E,2 ^F,2 G,2 | E,4 D,2 D,2 | D,2 G,2 F,2 D,2 | %18
w: lan. Dich|all- ein liebt mein|Her- ze, sag|ich ohn al- len|Scher- ze, dein|Die- ner will ich|
w: ein; Auch|du ihm bringst, Frau|Son- ne, der|Freu- den viel und|Won- ne; doch|mehr ich Freu- den|
 C,6 G,,2 | A,,2 B,,2 C,2 D,2 | G,,4 z2 |] %21
w: sein bis|an das En- de|mein.|
w: han, seit|du mir's an- ge-|tan.|

